dist/icons/sa-xp.svg

<svg width="28" height="16" xmlns="http://www.w3.org/2000/svg"><path fill-rule="evenodd" clip-rule="evenodd" d="m21.041,7.49799h-1l.9-4.261h.88c1.2,0,2.341.3,2.341,1.721,0,1.74-1.581,2.54-3.121,2.54zM15.64,15h2.8l1.121-5.30101h1.62c3.121,0,5.901-1.661,5.901-5.041,0-3.481-3.54-3.621-6.121-3.621h-2.36L15.64,15zM9.44188,5.83811l-2.021-4.801h-3.021l3.061,6.381L.999878,15.0001H4.48088l4.361-5.60199h.04l2.14002,5.60199h3.06l-3.24-7.30199,5.781-6.661h-3.301l-3.84002,4.801h-.04z"/></svg>

<svg width="29" height="16" xmlns="http://www.w3.org/2000/svg"><path fill-rule="evenodd" clip-rule="evenodd" d="m21.0411,7.47808h-1l.9-4.27226h.88c1.2,0,2.341.30079,2.341,1.72555,0,1.74459-1.581,2.54671-3.121,2.54671zm-5.401,7.52182h2.8l1.121-5.31502h1.62c3.121,0,5.901-1.66539,5.901-5.05432C27.0821,1.14037,23.5421,1,20.9611,1h-2.36l-2.961,13.9999zM9.442,5.8138,7.421,1.00012H4.4l3.061,6.39785L1,15h3.481l4.361-5.6168h.04L11.022,15h3.06l-3.24-7.32129,5.781-6.67859h-3.301L9.482,5.8138h-.04z"/></svg>
